X:40
T:Connaughtman's Rambles, The
T:Connaught Man's Rambles, The
T:Connachtman's Rambles
F:http://blackrosetheband.googlepages.com/ABCTUNES.ABC May 2009
M:6/8
L:1/8
R:jig
K:Dmaj
|:"D"FAA dAA|"G"BAA dAG|"D"FAA dfe|"Bm"dBB "G"BAG|
"D"FAA dAA|"G"BAA def|"D"gfe "G"dfe|1 "Bm"dBB "G"BAG:|2 "Bm"dBB B3|
K:Bmin
|:"Bm"fbb faa|"G"fed ede|"Bm"fbb faf|"G"fed "A"e3|
"Bm"fbb faa|"D"fed def|"G"gfe "D"dfe|1 "Bm"dBB B3:|2 "Bm"dBB "G"BAG|
